<?xml version="1.0" encoding="UTF-8"?>
<map version="1.10" tiledversion="1.12.2" orientation="orthogonal" renderorder="right-down" width="45" height="45" tilewidth="16" tileheight="16" infinite="0" nextlayerid="7" nextobjectid="8">
 <tileset firstgid="1" source="VIllage.tsx"/>
 <tileset firstgid="257" source="Tree and bushes.tsx"/>
 <layer id="4" name="Ground layer" width="45" height="45">
  <data encoding="csv">
173,173,173,173,173,173,173,173,173,173,173,173,173,173,173,173,173,173,173,173,173,173,173,173,173,173,173,173,173,173,173,173,173,173,173,173,173,173,173,173,173,173,173,173,173,
173,173,173,173,173,173,173,173,173,173,173,173,173,173,173,173,173,173,173,173,173,173,173,173,173,173,173,173,173,173,173,173,173,173,173,173,173,173,173,173,173,173,173,173,173,
173,173,173,173,173,173,173,173,173,173,173,173,173,173,173,173,173,173,173,173,173,173,173,173,173,173,173,173,173,173,173,173,173,173,173,173,173,173,173,173,173,173,173,173,173,
173,173,173,173,173,173,173,173,173,173,173,173,173,173,173,173,173,173,173,173,173,173,173,173,173,173,173,173,173,173,173,173,173,173,173,173,173,173,173,173,173,173,173,173,173,
173,173,173,173,173,173,173,173,173,173,173,173,173,173,173,173,173,173,173,173,173,173,173,173,173,173,173,173,173,173,173,173,173,173,173,173,173,173,173,173,173,173,173,173,173,
173,173,173,173,173,173,173,173,173,173,173,173,173,173,173,173,173,173,173,173,173,173,173,173,173,173,173,173,173,173,173,173,173,173,173,173,173,173,173,173,173,173,173,173,173,
173,173,173,173,173,173,173,173,173,173,173,173,173,173,173,173,173,173,173,173,173,173,173,173,173,173,173,173,173,173,173,173,173,173,173,173,173,173,173,173,173,173,173,173,173,
173,173,173,173,173,173,173,173,173,173,173,173,173,173,173,173,173,173,173,173,173,173,173,173,173,173,173,173,173,173,173,173,173,173,173,173,173,173,173,173,173,173,173,173,173,
173,173,173,173,173,173,173,173,173,173,173,173,173,173,173,173,173,173,173,173,173,173,173,173,173,173,173,173,173,173,173,173,173,173,173,173,173,173,173,173,173,173,173,173,173,
173,173,173,173,173,173,173,173,173,173,173,173,173,173,173,173,173,173,173,173,173,173,173,173,173,173,173,173,173,173,173,173,173,173,173,173,173,173,173,173,173,173,173,173,173,
173,173,173,173,173,173,173,173,173,173,173,173,173,173,173,173,173,173,173,173,173,173,173,173,173,173,173,173,173,173,173,173,173,173,173,173,173,173,173,173,173,173,173,173,173,
173,173,173,173,173,173,173,173,173,173,173,173,173,173,173,173,173,173,173,173,173,173,173,173,173,173,173,173,173,173,173,173,173,173,173,173,173,173,173,173,173,173,173,173,173,
173,173,173,173,173,173,173,173,173,173,173,173,173,173,173,173,173,173,173,173,173,173,173,173,173,173,173,173,173,173,173,173,173,173,173,173,173,173,173,173,173,173,173,173,173,
173,173,173,173,173,173,173,173,173,173,173,173,173,173,173,173,173,173,173,173,173,173,173,173,173,173,173,173,173,173,173,173,173,173,173,173,173,173,173,173,173,173,173,173,173,
173,173,173,173,173,173,173,173,173,173,173,173,173,173,173,173,173,173,173,173,173,173,173,173,173,173,173,173,173,173,173,173,173,173,173,173,173,173,173,173,173,173,173,173,173,
173,173,173,173,173,173,173,173,173,173,173,173,173,173,173,173,173,173,173,173,173,173,173,173,173,173,173,173,173,173,173,173,173,173,173,173,173,173,173,173,173,173,173,173,173,
173,173,173,173,173,173,173,173,173,173,173,173,173,173,173,173,173,173,173,173,173,173,173,173,173,173,173,173,173,173,173,173,173,173,173,173,173,173,173,173,173,173,173,173,173,
173,173,173,173,173,173,173,173,173,173,173,173,173,173,173,173,173,173,173,173,173,173,173,173,173,173,173,173,173,173,173,173,173,173,173,173,173,173,173,173,173,173,173,173,173,
173,173,173,173,173,173,173,173,173,173,173,173,173,173,173,173,173,173,173,173,173,173,173,173,173,173,173,173,173,173,173,173,173,173,173,173,173,173,173,173,173,173,173,173,173,
173,173,173,173,173,173,173,173,173,173,173,173,173,173,173,173,173,173,173,173,173,173,173,173,173,173,173,173,173,173,173,173,173,173,173,173,173,173,173,173,173,173,173,173,173,
173,173,173,173,173,173,173,173,173,173,173,173,173,173,173,173,173,173,173,173,173,173,173,173,173,173,173,173,173,173,173,173,173,173,173,173,173,173,173,173,173,173,173,173,173,
173,173,173,173,173,173,173,173,173,173,173,173,173,173,173,173,173,173,173,173,173,173,173,173,173,173,173,173,173,173,173,173,173,173,173,173,173,173,173,173,173,173,173,173,173,
173,173,173,173,173,173,173,173,173,173,173,173,173,173,173,173,173,173,173,173,173,173,173,173,173,173,173,173,173,173,173,173,173,173,173,173,173,173,173,173,173,173,173,173,173,
173,173,173,173,173,173,173,173,173,173,173,173,173,173,173,173,173,173,173,173,173,173,173,173,173,173,173,173,173,173,173,173,173,173,173,173,173,173,173,173,173,173,173,173,173,
173,173,173,173,173,173,173,173,173,173,173,173,173,173,173,173,173,173,173,173,173,173,173,173,173,173,173,173,173,173,173,173,173,173,173,173,173,173,173,173,173,173,173,173,173,
173,173,173,173,173,173,173,173,173,173,173,173,173,173,173,173,173,173,173,173,173,173,173,173,173,173,173,173,173,173,173,173,173,173,173,173,173,173,173,173,173,173,173,173,173,
173,173,173,173,173,173,173,173,173,173,173,173,173,173,173,173,173,173,173,173,173,173,173,173,173,173,173,173,173,173,173,173,173,173,173,173,173,173,173,173,173,173,173,173,173,
173,173,173,173,173,173,173,173,173,173,173,173,173,173,173,173,173,173,173,173,173,173,173,173,173,173,173,173,173,173,173,173,173,173,173,173,173,173,173,173,173,173,173,173,173,
173,173,173,173,173,173,173,173,173,173,173,173,173,173,173,173,173,173,173,173,173,173,141,141,173,173,173,173,173,173,173,173,173,173,173,173,173,173,173,173,173,173,173,173,173,
173,173,173,173,173,173,173,173,173,173,173,173,173,173,173,173,173,173,173,173,173,173,173,173,173,173,173,173,173,173,173,173,173,173,173,173,173,173,173,173,173,173,173,173,173,
173,173,173,173,173,173,173,173,173,173,173,173,173,173,173,173,173,173,173,173,173,173,173,173,173,173,173,173,173,173,173,173,173,173,173,173,173,173,173,173,173,173,173,173,173,
173,173,173,173,173,173,173,173,173,173,173,173,173,173,173,173,173,173,173,173,173,173,173,173,173,173,173,173,173,173,173,173,173,173,173,173,173,173,173,173,173,173,173,173,173,
173,173,173,173,173,173,173,173,173,173,173,173,173,173,173,173,173,173,173,173,173,173,173,173,173,173,173,173,173,173,173,173,173,173,173,173,173,173,173,173,173,173,173,173,173,
173,173,173,173,173,173,173,173,173,173,173,173,173,173,173,173,173,173,173,173,173,173,173,173,173,173,173,173,173,173,173,173,173,173,173,173,173,173,173,173,173,173,173,173,173,
173,173,173,173,173,173,173,173,173,173,173,173,173,173,173,173,173,173,173,173,173,173,173,173,173,173,173,173,173,173,173,173,173,173,173,173,173,173,173,173,173,173,173,173,173,
173,173,173,173,173,173,173,173,173,173,173,173,173,173,173,173,173,173,173,173,173,173,173,173,173,173,173,173,173,173,173,173,173,173,173,173,173,173,173,173,173,173,173,173,173,
173,173,173,173,173,173,173,173,173,173,173,173,173,173,173,173,173,173,173,173,173,173,173,173,173,173,173,173,173,173,173,173,173,173,173,173,173,173,173,173,173,173,173,173,173,
173,173,173,173,173,173,173,173,173,173,173,173,173,173,173,173,173,173,173,173,173,173,173,173,173,173,173,173,173,173,173,173,173,173,173,173,173,173,173,173,173,173,173,173,173,
173,173,173,173,173,173,173,173,173,173,173,173,173,173,173,173,173,173,173,173,173,173,173,173,173,173,173,173,173,173,173,173,173,173,173,173,173,173,173,173,173,173,173,173,173,
173,173,173,173,173,173,173,173,173,173,173,173,173,173,173,173,173,173,173,173,173,173,173,173,173,173,173,173,173,173,173,173,173,173,173,173,173,173,173,173,173,173,173,173,173,
173,173,173,173,173,173,173,173,173,173,173,173,173,173,173,173,173,173,173,173,173,173,173,173,173,173,173,173,173,173,173,173,173,173,173,173,173,173,173,173,173,173,173,173,173,
173,173,173,173,173,173,173,173,173,173,173,173,173,173,173,173,173,173,173,173,173,173,173,173,173,173,173,173,173,173,173,173,173,173,173,173,173,173,173,173,173,173,173,173,173,
173,173,173,173,173,173,173,173,173,173,173,173,173,173,173,173,173,173,173,173,173,173,173,173,173,173,173,173,173,173,173,173,173,173,173,173,173,173,173,173,173,173,173,173,173,
173,173,173,173,173,173,173,173,173,173,173,173,173,173,173,173,173,173,173,173,173,173,173,173,173,173,173,173,173,173,173,173,173,173,173,173,173,173,173,173,173,173,173,173,173,
173,173,173,173,173,173,173,173,173,173,173,173,173,173,173,173,173,173,173,173,173,173,173,173,173,173,173,173,173,173,173,173,173,173,173,173,173,173,173,173,173,173,173,173,173
</data>
 </layer>
 <layer id="3" name="Collision layer" width="45" height="45">
  <data encoding="csv">
262,262,262,262,262,262,262,262,262,262,262,262,262,262,262,262,262,262,262,262,262,262,262,262,262,262,262,262,262,262,262,262,262,262,262,262,262,262,262,262,262,262,262,262,262,
262,262,262,262,262,262,262,262,262,262,262,262,262,262,262,262,262,262,262,262,262,262,262,262,262,262,262,262,262,262,262,262,262,262,262,262,262,262,262,262,262,262,262,262,262,
262,262,262,262,262,262,262,262,262,262,262,262,262,262,262,262,262,262,262,262,262,262,262,262,262,262,262,262,262,262,262,262,262,262,262,262,262,262,262,262,262,262,262,262,262,
262,262,262,262,262,262,262,262,262,262,262,262,262,262,262,262,262,262,262,262,262,262,262,262,262,262,262,262,262,262,262,262,262,262,262,262,262,262,262,262,262,262,262,262,262,
262,262,262,262,262,262,262,262,262,262,262,262,0,0,262,262,262,262,262,262,262,262,262,262,262,262,0,0,0,0,0,262,262,262,262,262,262,262,262,262,262,262,262,262,262,
262,262,262,262,262,262,262,262,262,262,262,262,0,0,0,0,262,262,262,262,262,262,262,262,262,0,0,0,0,0,0,0,0,0,0,262,262,262,262,262,262,262,262,262,262,
262,262,262,262,262,262,262,262,262,262,262,262,0,0,0,0,0,262,262,262,262,262,262,0,0,0,0,0,0,0,0,0,0,0,0,0,0,0,262,262,262,262,262,262,262,
262,262,262,262,262,262,262,262,262,262,262,262,0,0,0,0,0,0,0,0,0,0,0,0,0,0,0,0,28,29,30,0,0,0,0,0,0,0,0,0,262,262,262,262,262,
262,262,262,262,262,262,262,262,262,262,262,262,0,0,0,0,0,0,0,0,0,0,0,0,0,0,0,0,44,0,46,0,0,0,0,0,0,0,0,0,262,262,262,262,262,
262,262,262,262,262,262,262,262,262,262,262,262,0,0,0,0,0,0,0,0,0,0,0,0,0,0,0,0,0,0,0,0,0,0,0,0,0,0,0,0,0,262,262,262,262,
262,262,262,262,262,262,262,262,262,262,262,0,0,0,0,0,0,0,0,0,0,0,0,0,0,0,0,0,0,0,0,0,0,0,0,0,0,0,0,0,0,262,262,262,262,
262,262,262,262,262,262,0,0,0,0,0,0,0,0,0,0,0,0,0,0,0,0,0,0,0,0,0,0,0,0,0,0,0,0,0,0,0,0,0,0,0,0,262,262,262,
262,262,262,262,262,0,0,0,0,0,0,0,0,0,0,0,0,0,0,0,0,0,0,0,0,0,0,0,0,0,0,0,0,0,0,0,0,0,0,0,0,0,262,262,262,
262,262,262,262,262,0,0,0,0,0,0,0,0,0,0,0,0,0,0,0,0,0,0,0,0,0,0,0,0,0,0,0,0,0,0,0,0,0,0,0,0,0,0,262,262,
262,262,262,262,262,0,0,0,0,0,0,0,0,0,0,0,0,0,0,0,0,0,0,0,0,0,0,0,0,0,0,0,0,0,0,0,0,0,0,0,0,0,0,262,262,
262,262,262,262,262,0,0,0,0,0,0,0,0,0,0,0,0,0,0,0,0,0,0,0,0,0,0,0,0,0,0,0,0,0,0,0,0,0,0,0,0,0,262,262,262,
262,262,262,262,262,0,0,0,0,0,0,0,0,0,0,0,0,0,0,0,0,0,0,0,0,0,0,0,0,0,0,0,0,0,0,0,0,0,0,0,0,0,262,262,262,
262,262,262,262,262,262,0,0,0,0,0,0,0,0,0,0,0,0,0,0,0,0,0,0,0,0,0,0,0,0,0,0,0,0,0,0,0,0,0,0,0,262,262,262,262,
262,262,262,262,262,262,0,0,0,0,0,0,0,0,0,0,0,0,0,0,0,0,0,0,0,0,0,0,0,0,0,0,0,0,0,0,0,0,0,0,0,262,262,262,262,
262,262,262,262,262,0,0,0,0,0,0,0,0,0,0,0,0,2,3,4,0,0,0,0,0,0,0,0,0,0,0,0,0,0,0,0,0,0,0,0,0,262,262,262,262,
262,262,262,262,262,0,0,0,0,0,0,0,0,0,0,0,17,18,19,20,6,7,8,9,0,0,0,0,0,0,0,0,0,0,0,0,0,0,0,0,0,262,262,262,262,
262,262,262,262,262,0,0,0,0,0,0,0,0,0,0,0,0,34,0,36,22,0,24,0,0,0,0,0,0,0,0,0,0,0,0,0,0,0,0,0,0,262,262,262,262,
262,262,262,262,262,0,0,0,0,0,0,0,0,0,0,0,0,0,0,0,0,0,0,0,0,0,0,0,0,0,0,0,0,0,0,0,0,0,0,262,262,262,262,262,262,
262,262,262,262,0,0,0,0,0,0,0,0,0,0,0,0,0,0,0,0,0,0,0,0,0,0,0,0,0,0,0,0,0,0,0,0,0,0,262,262,262,262,262,262,262,
262,262,262,262,0,0,0,0,0,0,0,0,0,0,0,0,0,0,0,0,0,0,0,0,0,0,0,0,0,0,0,0,0,0,0,0,0,262,262,262,262,262,262,262,262,
262,262,262,262,0,0,0,0,0,0,2,3,4,0,0,0,0,0,0,0,0,0,0,0,0,0,0,0,0,0,0,0,0,0,0,0,0,262,262,262,262,262,262,262,262,
262,262,262,262,262,0,0,0,0,17,18,19,20,21,0,0,0,0,0,0,0,0,0,0,0,0,0,0,0,0,0,0,0,0,0,0,0,262,262,262,262,262,262,262,262,
262,262,262,262,262,0,0,0,0,0,34,0,36,0,0,0,0,0,0,0,0,0,0,5,6,7,8,9,0,0,0,0,0,0,0,0,0,262,262,262,262,262,262,262,262,
262,262,262,262,262,0,0,0,0,0,0,0,0,0,0,0,0,0,0,0,0,0,0,0,22,0,24,0,0,0,0,0,0,0,0,0,0,262,262,262,262,262,262,262,262,
262,262,262,262,262,0,0,0,0,0,0,0,0,0,0,0,0,0,0,0,0,0,0,0,0,0,0,0,0,0,0,0,0,0,0,0,0,0,262,262,262,262,262,262,262,
262,262,262,262,262,0,0,0,0,0,0,0,0,0,0,0,0,0,0,0,0,0,0,0,0,0,0,0,0,0,0,0,0,0,0,0,0,0,262,262,262,262,262,262,262,
262,262,262,262,0,0,0,0,0,0,0,0,0,0,0,0,0,0,0,0,0,0,0,0,0,0,0,0,0,0,0,0,0,0,0,0,0,0,0,262,262,262,262,262,262,
262,262,262,262,0,0,0,0,0,0,0,0,0,0,0,0,0,0,0,0,0,0,0,0,0,0,0,0,0,0,0,0,0,0,0,0,0,0,0,262,262,262,262,262,262,
262,262,262,262,0,0,0,0,0,0,0,50,51,52,53,0,0,0,0,0,0,0,0,2,3,4,0,0,0,0,0,0,0,0,0,0,0,0,0,262,262,262,262,262,262,
262,262,262,262,0,0,0,0,0,0,65,66,67,68,0,0,0,0,0,0,0,0,17,18,19,20,38,39,40,41,0,0,0,0,0,0,0,0,0,262,262,262,262,262,262,
262,262,262,262,0,0,0,0,0,0,0,82,0,84,0,0,0,0,0,0,0,0,0,34,0,36,54,55,56,0,0,0,0,0,0,0,0,0,0,262,262,262,262,262,262,
262,262,262,262,0,0,0,0,0,0,0,0,0,0,0,0,0,0,0,0,0,0,0,0,0,0,0,0,0,0,0,0,0,0,0,0,0,0,0,262,262,262,262,262,262,
262,262,262,262,262,0,0,0,0,0,0,0,0,0,0,0,0,0,0,0,0,0,0,0,0,0,0,0,0,0,0,0,0,0,0,0,0,0,0,262,262,262,262,262,262,
262,262,262,262,262,262,0,0,0,0,0,0,0,0,0,0,0,0,0,0,0,0,0,0,0,0,0,0,0,0,0,0,0,0,0,0,0,0,0,262,262,262,262,262,262,
262,262,262,262,262,262,262,262,0,0,0,0,0,0,0,0,0,0,0,0,0,0,0,0,0,0,0,0,0,0,0,0,0,0,0,0,0,262,262,262,262,262,262,262,262,
262,262,262,262,262,262,262,262,262,262,0,0,0,0,0,0,0,0,0,0,0,0,0,0,0,0,0,0,0,0,0,0,0,0,0,0,262,262,262,262,262,262,262,262,262,
262,262,262,262,262,262,262,262,262,262,262,262,0,0,0,0,0,0,0,0,0,0,0,0,0,0,0,0,0,0,0,262,262,262,262,262,262,262,262,262,262,262,262,262,262,
262,262,262,262,262,262,262,262,262,262,262,262,262,262,262,0,0,0,0,0,0,0,0,0,0,0,0,262,262,262,262,262,262,262,262,262,262,262,262,262,262,262,262,262,262,
262,262,262,262,262,262,262,262,262,262,262,262,262,262,262,262,262,262,262,262,0,0,262,262,262,262,262,262,262,262,262,262,262,262,262,262,262,262,262,262,262,262,262,262,262,
262,262,262,262,262,262,262,262,262,262,262,262,262,262,262,262,262,262,262,262,262,262,262,262,262,262,262,262,262,262,262,262,262,262,262,262,262,262,262,262,262,262,262,262,262
</data>
 </layer>
 <objectgroup id="6" name="Door Layer">
  <object id="1" x="464.136" y="128.318" width="15.5" height="15.25">
   <properties>
    <property name="spawn_x" type="int" value="0"/>
    <property name="spawn_y" type="int" value="0"/>
    <property name="target" value="Assets/revised_ground_floor_map.tmx"/>
   </properties>
  </object>
  <object id="2" x="288.303" y="336.303" width="15.5" height="15.25">
   <properties>
    <property name="spawn_x" type="int" value="0"/>
    <property name="spawn_y" type="int" value="0"/>
    <property name="target" value="house_2"/>
   </properties>
  </object>
  <object id="3" x="335.818" y="335.818" width="15.5" height="15.25">
   <properties>
    <property name="spawn_x" type="int" value="0"/>
    <property name="spawn_y" type="int" value="0"/>
    <property name="target" value="house_2"/>
   </properties>
  </object>
  <object id="4" x="399.636" y="448.151" width="15.5" height="15.25">
   <properties>
    <property name="spawn_x" type="int" value="0"/>
    <property name="spawn_y" type="int" value="0"/>
    <property name="target" value="house_3"/>
   </properties>
  </object>
  <object id="5" x="384.151" y="559.667" width="15.5" height="15.25">
   <properties>
    <property name="spawn_x" type="int" value="0"/>
    <property name="spawn_y" type="int" value="0"/>
    <property name="target" value="house_4"/>
   </properties>
  </object>
  <object id="6" x="191.969" y="560.333" width="15.5" height="15.25">
   <properties>
    <property name="spawn_x" type="int" value="0"/>
    <property name="spawn_y" type="int" value="0"/>
    <property name="target" value="house_5"/>
   </properties>
  </object>
  <object id="7" x="175.636" y="432.485" width="15.5" height="15.25">
   <properties>
    <property name="spawn_x" type="int" value="0"/>
    <property name="spawn_y" type="int" value="0"/>
    <property name="target" value="house_1"/>
   </properties>
  </object>
 </objectgroup>
 <layer id="1" name="Map layer" width="45" height="45">
  <data encoding="csv">
258,258,258,258,258,258,258,258,258,258,258,258,258,258,258,258,258,258,258,258,258,258,258,258,258,258,258,258,258,258,258,258,258,258,258,258,258,258,258,258,258,258,258,258,258,
258,258,258,258,258,258,258,258,258,258,258,258,258,258,258,258,258,258,258,258,258,258,258,258,258,258,258,258,258,258,258,258,258,258,258,258,258,258,258,258,258,258,258,258,258,
258,258,258,258,258,258,258,258,258,258,258,258,258,258,258,258,258,258,258,258,258,258,258,258,258,258,258,258,258,258,258,258,258,258,258,258,258,258,258,258,258,258,258,258,258,
258,258,258,258,258,258,258,258,258,258,258,258,0,0,258,258,258,258,258,258,258,258,258,258,258,258,0,0,0,0,0,258,258,258,258,258,258,258,258,258,258,258,258,258,258,
258,258,258,258,258,258,258,258,258,258,258,258,0,0,0,0,258,258,258,258,258,258,258,258,258,0,0,0,0,0,0,0,0,0,0,258,258,258,258,258,258,258,258,258,258,
258,258,258,258,258,258,258,258,258,258,258,258,0,0,0,0,0,258,258,258,258,258,258,0,0,0,0,0,0,0,0,0,0,0,0,0,0,0,258,258,258,258,258,258,258,
258,258,258,258,258,258,258,258,258,258,258,258,0,0,0,0,0,0,0,0,0,0,0,0,0,0,0,0,0,0,0,0,0,0,0,0,0,0,0,0,258,258,258,258,258,
258,258,258,258,258,258,258,258,258,258,258,258,0,0,0,0,0,0,0,0,0,0,0,0,0,0,0,0,28,29,30,0,0,0,0,0,0,0,0,0,258,258,258,258,258,
258,258,258,258,258,258,258,258,258,258,258,258,0,0,0,0,0,0,0,0,0,0,0,0,0,0,0,0,44,45,46,0,0,0,0,0,0,0,0,0,0,258,258,258,258,
258,258,258,258,258,258,258,258,258,258,258,0,0,0,0,0,0,0,0,0,0,0,0,0,0,0,0,0,0,0,0,0,0,0,0,0,0,0,0,0,0,258,258,258,258,
258,258,258,258,258,258,0,0,0,0,0,0,0,0,0,0,0,0,0,0,0,0,0,0,0,0,0,0,0,0,0,0,0,0,0,0,0,0,0,0,0,0,258,258,258,
258,258,258,258,258,0,0,0,0,0,0,0,0,0,0,0,0,0,0,0,0,0,0,0,0,0,0,0,0,0,0,0,0,0,0,0,0,0,0,0,0,0,258,258,258,
258,258,258,258,258,0,0,0,0,0,0,0,0,0,0,0,0,0,0,0,0,0,0,0,0,0,0,0,0,0,0,0,0,0,0,0,0,0,0,0,0,0,0,258,258,
258,258,258,258,258,0,0,0,0,0,0,0,0,0,0,0,0,0,0,0,0,0,0,0,0,0,0,0,0,0,0,0,0,0,0,0,0,0,0,0,0,0,0,258,258,
258,258,258,258,258,0,0,0,0,0,0,0,0,0,0,0,0,0,0,0,0,0,0,0,0,0,0,0,0,0,0,0,0,0,0,0,0,0,0,0,0,0,258,258,258,
258,258,258,258,258,0,0,0,0,0,0,0,0,0,0,0,0,0,0,0,0,0,0,0,0,0,0,0,0,0,0,0,0,0,0,0,0,0,0,0,0,0,258,258,258,
258,258,258,258,258,258,0,0,0,0,0,0,0,0,0,0,0,0,0,0,0,0,0,0,0,0,0,0,0,0,0,0,0,0,0,0,0,0,0,0,0,258,258,258,258,
258,258,258,258,258,258,0,0,0,0,0,0,0,0,0,0,0,0,0,0,0,0,0,0,0,0,0,0,0,0,0,0,0,0,0,0,0,0,0,0,0,258,258,258,258,
258,258,258,258,258,0,0,0,0,0,0,0,0,0,0,0,0,0,0,0,0,0,0,0,0,0,0,0,0,0,0,0,0,0,0,0,0,0,0,0,0,258,258,258,258,
258,258,258,258,258,0,0,0,0,0,0,0,0,0,0,0,0,2,3,4,0,0,0,0,0,0,0,0,0,0,0,0,0,0,0,0,0,0,0,0,0,258,258,258,258,
258,258,258,258,258,0,0,0,0,0,0,0,0,0,0,0,17,18,19,20,6,7,8,9,0,0,0,0,0,0,0,0,0,0,0,0,0,0,0,0,0,258,258,258,258,
258,258,258,258,258,0,0,0,0,0,0,0,0,0,0,0,0,34,35,36,22,23,24,0,0,0,0,0,0,0,0,0,0,0,0,0,0,0,0,258,258,258,258,258,258,
258,258,258,258,0,0,0,0,0,0,0,0,0,0,0,0,0,0,73,0,0,0,0,0,0,0,0,0,0,0,0,0,0,0,0,0,0,0,258,258,258,258,258,258,258,
258,258,258,258,0,0,0,0,0,0,0,0,0,0,0,0,0,0,89,0,0,0,0,0,0,0,0,0,0,0,0,0,0,0,0,0,0,258,258,258,258,258,258,258,258,
258,258,258,258,0,0,0,0,0,0,0,0,0,0,0,0,0,0,89,0,0,0,0,0,0,0,0,0,0,0,0,0,0,0,0,0,0,258,258,258,258,258,258,258,258,
258,258,258,258,258,0,0,0,0,0,2,3,4,0,0,0,0,0,89,0,0,0,0,0,0,0,0,0,0,0,0,0,0,0,0,0,0,258,258,258,258,258,258,258,258,
258,258,258,258,258,0,0,0,0,17,18,19,20,21,0,0,0,0,89,0,0,0,0,0,0,0,0,0,0,0,0,0,0,0,0,0,0,258,258,258,258,258,258,258,258,
258,258,258,258,258,0,0,0,0,0,34,35,36,33,0,0,70,71,87,71,72,0,0,5,6,7,8,9,0,0,0,0,0,0,0,0,0,258,258,258,258,258,258,258,258,
258,258,258,258,258,0,0,0,0,0,0,73,0,0,0,0,86,87,87,87,88,0,0,0,22,23,24,0,0,0,0,0,0,0,0,0,0,0,258,258,258,258,258,258,258,
258,258,258,258,258,0,0,0,0,0,0,102,120,120,120,120,87,87,87,87,87,120,120,120,120,104,0,0,0,0,0,0,0,0,0,0,0,0,258,258,258,258,258,258,258,
258,258,258,258,0,0,0,0,0,0,0,0,0,0,0,0,86,87,87,87,88,0,0,0,0,0,0,0,0,0,0,0,0,0,0,0,0,0,0,258,258,258,258,258,258,
258,258,258,258,0,0,0,0,0,0,0,0,0,0,0,0,102,103,87,103,104,0,0,0,0,0,0,0,0,0,0,0,0,0,0,0,0,0,0,258,258,258,258,258,258,
258,258,258,258,0,0,0,0,0,0,0,0,0,0,0,0,0,0,89,0,0,0,0,0,0,0,0,0,0,0,0,0,0,0,0,0,0,0,0,258,258,258,258,258,258,
258,258,258,258,0,0,0,0,0,0,0,50,51,52,53,0,0,0,89,0,0,0,0,2,3,4,0,0,0,0,0,0,0,0,0,0,0,0,0,258,258,258,258,258,258,
258,258,258,258,0,0,0,0,0,0,65,66,67,68,0,0,0,0,89,0,0,0,17,18,19,20,38,39,40,41,0,0,0,0,0,0,0,0,0,258,258,258,258,258,258,
258,258,258,258,0,0,0,0,0,0,0,82,83,84,0,0,0,0,89,0,0,0,0,34,35,36,54,55,56,0,0,0,0,0,0,0,0,0,0,258,258,258,258,258,258,
258,258,258,258,258,0,0,0,0,0,0,0,73,0,0,70,120,120,87,121,0,0,0,0,89,0,0,0,0,0,0,0,0,0,0,0,0,0,0,258,258,258,258,258,258,
258,258,258,258,258,258,0,0,0,0,0,0,102,120,120,104,0,0,89,0,0,0,0,0,89,0,0,0,0,0,0,0,0,0,0,0,0,0,0,258,258,258,258,258,258,
258,258,258,258,258,258,258,258,0,0,0,0,0,0,0,0,0,0,102,120,120,120,120,120,104,0,0,0,0,0,0,0,0,0,0,0,0,258,258,258,258,258,258,258,258,
258,258,258,258,258,258,258,258,258,258,0,0,0,0,0,0,0,0,0,0,0,0,0,0,0,0,0,0,0,0,0,0,0,0,0,0,258,258,258,258,258,258,258,258,258,
258,258,258,258,258,258,258,258,258,258,258,258,0,0,0,0,0,0,0,0,0,0,0,0,0,0,0,0,0,0,0,258,258,258,258,258,258,258,258,258,258,258,258,258,258,
258,258,258,258,258,258,258,258,258,258,258,258,258,258,258,0,0,0,0,0,0,0,0,0,0,0,0,258,258,258,258,258,258,258,258,258,258,258,258,258,258,258,258,258,258,
258,258,258,258,258,258,258,258,258,258,258,258,258,258,258,258,258,258,258,258,0,0,258,258,258,258,258,258,258,258,258,258,258,258,258,258,258,258,258,258,258,258,258,258,258,
258,258,258,258,258,258,258,258,258,258,258,258,258,258,258,258,258,258,258,258,258,258,258,258,258,258,258,258,258,258,258,258,258,258,258,258,258,258,258,258,258,258,258,258,258,
258,258,258,258,258,258,258,258,258,258,258,258,258,258,258,258,258,258,258,258,258,258,258,258,258,258,258,258,258,258,258,258,258,258,258,258,258,258,258,258,258,258,258,258,258
</data>
 </layer>
</map>
