<?xml version="1.0" encoding="UTF-8"?>
<map version="1.10" tiledversion="1.12.1" orientation="orthogonal" renderorder="right-down" width="13" height="15" tilewidth="16" tileheight="16" infinite="0" nextlayerid="6" nextobjectid="39">
 <editorsettings>
  <export target="Revised_Dungeon_ground_floor_map" format="tmx"/>
 </editorsettings>
 <tileset firstgid="1" source="Dungeon_tileset.tsx"/>
 <layer id="1" name="Map layer" width="13" height="15">
  <data encoding="csv">
90,90,90,90,90,90,90,90,90,90,90,90,90,
90,90,90,90,90,90,90,90,90,90,90,90,90,
90,90,90,90,90,90,90,90,90,90,90,90,90,
90,90,90,18,24,24,24,24,24,25,90,90,90,
90,90,90,34,36,37,35,35,35,57,90,90,90,
90,90,90,50,71,71,54,71,71,57,90,90,90,
90,90,90,50,71,71,69,71,71,57,90,90,90,
90,90,90,50,71,71,71,71,71,57,90,90,90,
90,90,90,50,84,71,71,71,71,57,90,90,90,
90,90,90,74,93,71,71,71,92,77,90,90,90,
90,90,90,90,66,71,71,71,73,90,90,90,90,
90,90,90,90,82,71,71,71,73,90,90,90,90,
90,90,90,90,74,75,76,75,77,90,90,90,90,
90,90,90,90,90,90,90,90,90,90,90,90,90,
90,90,90,90,90,90,90,90,90,90,90,90,90
</data>
 </layer>
 <layer id="4" name="Collision layer" width="13" height="15">
  <data encoding="csv">
0,0,0,0,0,0,0,0,0,0,0,0,0,
0,0,0,0,0,0,0,0,0,0,0,0,0,
0,0,0,0,0,0,0,0,0,0,0,0,0,
0,0,0,18,20,20,20,20,20,25,0,0,0,
0,0,0,50,36,37,38,40,40,57,0,0,0,
0,0,0,50,115,0,0,0,115,57,0,0,0,
0,0,0,50,115,0,0,0,0,57,0,0,0,
0,0,0,50,115,0,115,0,0,57,0,0,0,
0,0,0,50,115,0,115,115,0,57,0,0,0,
0,0,0,74,93,0,0,0,92,77,0,0,0,
0,0,0,0,66,0,0,115,73,0,0,0,0,
0,0,0,0,82,0,0,0,89,0,0,0,0,
0,0,0,0,74,75,0,75,77,0,0,0,0,
0,0,0,0,0,0,0,0,0,0,0,0,0,
0,0,0,0,0,0,0,0,0,0,0,0,0
</data>
 </layer>
 <layer id="5" name="Entry/Exit layer" width="13" height="15">
  <data encoding="csv">
0,0,0,0,0,0,0,0,0,0,0,0,0,
0,0,0,0,0,0,0,0,0,0,0,0,0,
0,0,0,0,0,0,0,0,0,0,0,0,0,
0,0,0,0,0,0,0,0,0,0,0,0,0,
0,0,0,0,0,0,0,0,0,0,0,0,0,
0,0,0,0,0,0,0,0,0,0,0,0,0,
0,0,0,0,0,0,114,0,0,0,0,0,0,
0,0,0,0,0,0,0,0,0,0,0,0,0,
0,0,0,0,0,0,0,0,0,0,0,0,0,
0,0,0,0,0,0,0,0,0,0,0,0,0,
0,0,0,0,0,0,0,0,0,0,0,0,0,
0,0,0,0,0,0,0,0,0,0,0,0,0,
0,0,0,0,0,0,76,0,0,0,0,0,0,
0,0,0,0,0,0,0,0,0,0,0,0,0,
0,0,0,0,0,0,0,0,0,0,0,0,0
</data>
 </layer>
</map>
